X:1
T:Title
%%score { ( 1 5 ) | ( 2 3 4 ) }
L:1/8
M:2/4
K:F
V:1 treble nm="Grand Piano"
V:5 treble 
V:2 bass 
V:3 bass 
V:4 bass 
V:1
 z2[Q:1/4=106] F>G | A>_A =A>_A | A4 | F4 | [GB]>A G>^F | G4- | G2 E>F | G>^F G>F | G4 | E4 | %10
 A>G F>E | F4- | F2 A>B | c>=B c>B | c4- | c2 =B>c | d>c B>A | [GB]4- | [GB]2 G>A | B>B B>B | %20
 c>B A>G | F2 E2 | F4- | F2 C>C | A2 _A2 | A4- | A2 C>C | [CAc]2 [=B,_A=B]2 | [CAc]4- | [CAc]2 z2 | %30
 c2 z2 | [Bd]>c c>B | [GB]2 [CA]2 | [CGB]4- | [CGB]2 z2 | [CGB]2 [A,FA]2 | [CGB]4- | [CGB]2 C>C | %38
 [Ac]2 B2 | A4- | A2 F>G | A>A A>G | B>B A>G | F2 E2 | F4- | F2 z2 |] %46
V:2
 z4 | z4 | F4 | z4 | z4 | E4- | E2 z2 | z4 | E4 | z4 | F2 A,2- | [A,C]4- | [A,-C]2 [A,F]2 | F4 | %14
 [CF]4- | [CF]4 | [F,F]4 | [E,B,C]4- | [E,B,C]4 | z2 [B,G]2 | [CE]4 | [F,A,C]2 [G,B,C]2 | C4- | %23
 C2 z2 | [F,CF]2 [_A,=B,E]2 | [CF]4- | [CF]2 z2 | F,2 _A,2 | F,4- | F,2[K:treble] A>B | %30
 z z/ c/ z z/ c/ | z z/ A/ [A,CA]2 | E,2 B,2 | z4 | z2 C>C | E,2 F,2 | E,4- | E,4 | %38
 [F,A,]2[K:treble] [G,B,G]2 | F4- | F2 z2 | [F,F]2 [A,CF]2 | [F,B,DF]2 [F,A,CF]2 | %43
 [F,A,C]2 [E,B,C]2 | [F,A,C]4- | [F,A,C]2 z2 |] %46
V:3
 x4 | F2 [A,CF]2 | [A,C]4- | [A,C]4 | z2 [B,CE]2 | [B,C]4- | [B,C]4 | E2 [B,CE]2 | [B,C]4- | %9
 [B,C]4 | z2 C2 | x4 | x4 | z2 A,2- | A,4- | A,4 | z2 B,2 | x4 | x4 | E,4- | E,4 | x4 | [F,A,]4- | %23
 [F,A,]4 | x4 | F,4- | F,4 | x4 | x4 | x2[K:treble] x2 | F,2 A,2 | F,2 z2 | x4 | B,4- | B,4 | x4 | %36
 x4 | x4 | x2[K:treble] x2 | [A,C]4- | [A,C]4 | x4 | x4 | x4 | x4 | x4 |] %46
V:4
 x4 | F,4- | F,4- | F,4 | E,4- | E,4- | E,4 | E,4- | E,4- | E,4 | F,4- | F,4- | F,4 | F,4- | F,4- | %15
 F,4 | x4 | x4 | x4 | x4 | x4 | x4 | x4 | x4 | x4 | x4 | x4 | x4 | x4 | x2[K:treble] x2 | x4 | x4 | %32
 x4 | x4 | x4 | x4 | x4 | x4 | x2[K:treble] x2 | x4 | x4 | x4 | x4 | x4 | x4 | x4 |] %46
V:5
 x4 | x4 | x4 | x4 | x4 | x4 | x4 | x4 | x4 | x4 | x4 | x4 | x4 | x4 | x4 | x4 | x4 | x4 | x4 | %19
 G2 z2 | x4 | x4 | x4 | x4 | x4 | x4 | x4 | x4 | x4 | x4 | A2- [CAc]2 | x4 | x4 | x4 | x4 | x4 | %36
 x4 | x4 | x4 | x4 | x4 | x4 | x4 | x4 | x4 | x4 |] %46

